X:1
T:Title
L:1/8
M:4/4
K:Db
V:1 treble nm="Grand Piano"
V:1
 z4 z2[Q:1/4=100] F2 | F2 FE EDDC | C6 F2 | FF F2 EDDC | C6- CC | D2 E2 FEDE | C6- CC | %7
 D2 E2 FGAG | F4 F2 F2 | F2 FE EDDC | C6 F2 | FF F2 EDDC | C6- CC | D2 E2 FEDE | C6- CC | %15
 D2 E2 FGAG | F6 z F | B2 B2 c2 dc | B2 AG F3 F | B2 BB c2 dc | B2 AG F3 F | A2 A=G AB/_c/ BA | %22
 GFGF E3 E | F2 G2 AGGF | F6- FF | G2 A2 Bcdc | B6- BF | B2 B2 c2 dc | B2 AG F3 F | B2 BB c2 dc | %30
 B2 AG F3 F | A2 A=G AB/_c/ BA | GFGF E3 E | F2 G2 AGGF | F6- FF | G2 A2 Bcdc | B6 z2 |] %37

